X: 1
T: Red Prairie Dawn
C: Garry Harrison
R: reel
Z: 2016 John Chambers <jc:trillian.mit.edu>
F: https://www.theportlandcollection.com/wp-content/uploads/2015/06/Red-Prairie-Dawn-PC3-Web.pdf
M: C|
L: 1/8
K: A
|:\
{c}e2ce BA2B | c4 F3F | A2FA EAAB | cefc ec3 |
{c}e2ce BA2B | c4 F3F | A2FA EAAB | BABA {F}A4 :|
|:\
{B}c4 F3E | F/A7/ {B,}C3B | A,2AE FAAB | ce2c B2AB |
{B}c4 F3E | F/A7/ {B,}C3B | A,2AE FAAc | BAB2 {F}A4 :|
